Obsidian-SemiLight/actions/16s/amarok_cart_add.svg

<svg viewBox="0 0 16 16" xmlns="http://www.w3.org/2000/svg"><path d="m8 2c-1.6568542 0-3 1.3431458-3 3h-3v1 7 1h7v-1h-6v-7h2v1.0878906c-.5985922.2116336-.9991092.7772073-1 1.4121094 0 .8284271.6715729 1.5 1.5 1.5s1.5-.6715729 1.5-1.5c-.0008908-.6349021-.4014078-1.2004758-1-1.4121094v-1.0878906h4v2h1v-2h2v3h1v-3-1h-3c0-1.6568542-1.3431458-3-3-3zm0 1c1.1045695 0 2 .8954305 2 2h-4c0-1.1045695.8954305-2 2-2zm-2.5 5c.2761424 0 .5.2238576.5.5s-.2238576.5-.5.5-.5-.2238576-.5-.5.2238576-.5.5-.5zm5.5 1v2h-2v1h2v2h1v-2h2v-1h-2v-2z" fill="#4d4d4d"/></svg>

<svg xmlns="http://www.w3.org/2000/svg" viewBox="0 0 16 16">
  <defs id="defs3051">
    <style type="text/css" id="current-color-scheme">
      .ColorScheme-Text {
        color:#4d4d4d;
      }
      </style>
  </defs>
 <path style="fill:currentColor;fill-opacity:1;stroke:none" 
     d="M 8 2 C 6.3431458 2 5 3.3431458 5 5 L 2 5 L 2 6 L 2 13 L 2 14 L 9 14 L 9 13 L 3 13 L 3 6 L 5 6 L 5 7.0878906 C 4.4014078 7.2995242 4.0008908 7.8650979 4 8.5 C 4 9.3284271 4.6715729 10 5.5 10 C 6.3284271 10 7 9.3284271 7 8.5 C 6.9991092 7.8650979 6.5985922 7.2995242 6 7.0878906 L 6 6 L 10 6 L 10 8 L 11 8 L 11 6 L 13 6 L 13 9 L 14 9 L 14 6 L 14 5 L 11 5 C 11 3.3431458 9.6568542 2 8 2 z M 8 3 C 9.1045695 3 10 3.8954305 10 5 L 6 5 C 6 3.8954305 6.8954305 3 8 3 z M 5.5 8 C 5.7761424 8 6 8.2238576 6 8.5 C 6 8.7761424 5.7761424 9 5.5 9 C 5.2238576 9 5 8.7761424 5 8.5 C 5 8.2238576 5.2238576 8 5.5 8 z M 11 9 L 11 11 L 9 11 L 9 12 L 11 12 L 11 14 L 12 14 L 12 12 L 14 12 L 14 11 L 12 11 L 12 9 L 11 9 z "
     class="ColorScheme-Text"
     />
</svg>
